X:1
T:Though the Fig Tree Shall Not Blossom
T:Though the Fig Tree Shall Not Blossom
T:Daniel Brink Towner
T:Ernest Lee Thompson, 1905
T:Public Domain Courtesy of the Cyber Hymnal™
C:Daniel Brink Towner
Z:Public Domain
Z:Courtesy of the Cyber Hymnal™
%%score ( 1 2 ) ( 3 4 )
L:1/8
Q:1/4=110
M:4/4
K:D
V:1 treble 
V:2 treble 
V:3 bass 
V:4 bass 
V:1
 [DF]>[DE] | D2 D2 [A,E]2 [CE]2 | [DF]2 [DA]4 [DA]>[DB] | [DA]2 [DF]2 [DF]2 [CE]2 | %4
w: 1.~Though the|fig tree shall not|blos- som, Nei- ther|fruit be in the|
w: 2.~Though no|flocks are in the|sheep- fold, Nei- ther|cat- tle in the|
w: 3.~Though my|path lies through the|val- ley Of the|sha- dows, He is|
w: 4.~Though my|friends should not re-|ceive Him, Or through|sin should prove un-|
 [CE]6 [CF]>[CE] | D2 D2 [A,E]2 [CE]2 | [DF]2 [DA]4 [DA]>[Fd] | [Ec]2 [CA]2 [DB]2 [DE]2 | A6 || %9
w: vine: Though in|vain the ol- ive|la- bors, And the|fruit- ful fields de-|cline:|
w: stalls: Though the|earth is filled with|fa- mine, And no|rain from Hea- ven|falls:|
w: near, For His|rod and staff they|com- fort, And no|e- vil I shall|fear.|
w: true: Though the|wick- ed should en-|tice me, And should|per- se- cute me,|too:|
"^Refrain" (3[GA][GB][Gc] | [Fd]2 [Fd]>[Fd] [Gc]2 [EG]>[GB] | [FA]4 [DF]2 (3[GA][GB][Gc] | %12
w: |||
w: I will re-|joice in the Lord, my Re-|deem- er, Joy- ful I’ll|
w: |||
w: |||
 [Fd]2 [Ad]>[Ac] [GB]2 [^Ge]>[Gd] | [Ac]6 (3[GA][GB][Gc] | [Fd]2 [Fd]>[Fd] [FA]2 [DF]>[DF] | %15
w: |||
w: trust Him, for He will pro-|vide, Giv- ing me|all that I need for my|
w: |||
w: |||
 [DG]2 [GB]3 [GB][Gc][GB] | [DA]2 D>[DG] [DF]2 [CE]>[CE] | D6 |] %18
w: |||
w: jour- ney; I will not|fear, for He walks by my|side.|
w: |||
w: |||
V:2
 x2 | D2 D2 x4 | x8 | x8 | x8 | D2 D2 x4 | x8 | x8 | (C2 D2 E2) || x2 | x8 | x8 | x8 | x8 | x8 | %15
 x8 | x2 D3/2 x9/2 | D6 |] %18
V:3
 [D,A,]>[D,G,] | [D,F,]2 [D,F,]2 [C,A,]2 [A,,A,]2 | [D,A,]2 [D,F,]4 [D,F,]>[D,G,] | %3
 [D,F,]2 [D,A,]2 [A,,A,]2 [A,,A,]2 | [A,,A,]6 [A,,A,]>[A,,G,] | [D,F,]2 [D,F,]2 [C,A,]2 [A,,A,]2 | %6
 [D,A,]2 [D,F,]4 [D,F,]>[D,A,] | [E,A,]2 [E,A,]2 [E,^G,]2 [E,G,]2 | (A,2 B,2 C2) || (3A,A,A, | %10
 [D,A,]2 [D,A,]>[D,A,] [E,A,]2 [C,A,]>[A,,C] | [D,D]4 [D,A,]2 (3[A,C][A,D][A,E] | %12
 [B,D]2 [F,D]>[F,D] [G,D]2 [E,D]>[E,B,] | [A,,A,]6 (3A,A,A, | %14
 [D,A,]2 [D,A,]>[D,A,] [D,D]2 [D,A,]>[D,A,] | [G,B,]2 [G,D]3 [G,D][G,D][G,D] | %16
 [F,D]2 [F,A,]>[G,B,] A,2 [A,,G,]>[A,,G,] | [D,F,]6 |] %18
V:4
 x2 | x8 | x8 | x8 | x8 | x8 | x8 | x8 | A,,6 || x2 | x8 | x8 | x8 | x8 | x8 | x8 | x4 A,2 x2 | %17
 x6 |] %18

